src/pos-icons/lock-plus.svg

<svg height="24" viewBox="0 0 24 24" width="24" xmlns="http://www.w3.org/2000/svg"><path d="m18 8h-1v-2a5 5 0 0 0 -5-5 5 5 0 0 0 -5 5v2h-1a2 2 0 0 0 -2 2v10a2 2 0 0 0 2 2h12a2 2 0 0 0 2-2v-10a2 2 0 0 0 -2-2m-9.1-2c0-1.71 1.39-3.1 3.1-3.1s3.1 1.39 3.1 3.1v2h-6.2zm7.1 10h-3v3h-2v-3h-3v-2h3v-3h2v3h3z"/></svg>

<?xml version="1.0" encoding="UTF-8"?><!DOCTYPE svg PUBLIC "-//W3C//DTD SVG 1.1//EN" "http://www.w3.org/Graphics/SVG/1.1/DTD/svg11.dtd"><svg xmlns="http://www.w3.org/2000/svg" xmlns:xlink="http://www.w3.org/1999/xlink" version="1.1" id="mdi-lock-plus" width="24" height="24" viewBox="0 0 24 24"><path d="M18,8H17V6A5,5 0 0,0 12,1A5,5 0 0,0 7,6V8H6A2,2 0 0,0 4,10V20A2,2 0 0,0 6,22H18A2,2 0 0,0 20,20V10A2,2 0 0,0 18,8M8.9,6C8.9,4.29 10.29,2.9 12,2.9C13.71,2.9 15.1,4.29 15.1,6V8H8.9V6M16,16H13V19H11V16H8V14H11V11H13V14H16V16Z" /></svg>
